epam-assets/icon-sources/18/editor-mention.svg

<svg xmlns="http://www.w3.org/2000/svg" width="18" height="18" fill="none" viewBox="0 0 18 18">
  <path fill="#6C6F80" fill-rule="evenodd" d="M9 1.5C4.86 1.5 1.5 4.86 1.5 9c0 4.14 3.36 7.5 7.5 7.5h3.75V15H9c-3.255 0-6-2.745-6-6s2.745-6 6-6 6 2.745 6 6v1.072c0 .593-.533 1.178-1.125 1.178s-1.125-.585-1.125-1.178V9c0-2.07-1.68-3.75-3.75-3.75-2.07 0-3.75 1.68-3.75 3.75a3.751 3.751 0 0 0 6.405 2.648c.488.667 1.328 1.102 2.22 1.102 1.477 0 2.625-1.2 2.625-2.678V9c0-4.14-3.36-7.5-7.5-7.5Zm0 9.75A2.247 2.247 0 0 1 6.75 9 2.247 2.247 0 0 1 9 6.75 2.247 2.247 0 0 1 11.25 9 2.247 2.247 0 0 1 9 11.25Z" clip-rule="evenodd"/>
</svg>

<svg width="18" height="18" viewBox="0 0 18 18" fill="none" xmlns="http://www.w3.org/2000/svg">
<g id="18/editor-mention">
<path id="icon" fill-rule="evenodd" clip-rule="evenodd" d="M9 1.5C4.86 1.5 1.5 4.86 1.5 9C1.5 13.14 4.86 16.5 9 16.5H12.75V15H9C5.745 15 3 12.255 3 9C3 5.745 5.745 3 9 3C12.255 3 15 5.745 15 9V10.0725C15 10.665 14.4675 11.25 13.875 11.25C13.2825 11.25 12.75 10.665 12.75 10.0725V9C12.75 6.93 11.07 5.25 9 5.25C6.93 5.25 5.25 6.93 5.25 9C5.25 11.07 6.93 12.75 9 12.75C10.035 12.75 10.98 12.33 11.655 11.6475C12.1425 12.315 12.9825 12.75 13.875 12.75C15.3525 12.75 16.5 11.55 16.5 10.0725V9C16.5 4.86 13.14 1.5 9 1.5ZM9 11.25C7.755 11.25 6.75 10.245 6.75 9C6.75 7.755 7.755 6.75 9 6.75C10.245 6.75 11.25 7.755 11.25 9C11.25 10.245 10.245 11.25 9 11.25Z" fill="#6C6F80"/>
</g>
</svg>
